!!!OTL: Das Maedchen am Bache.
!!!OTL-incipit: ICH HAB EIN BAECHLEIN FUNDEN
!!!COM: J. R. Zumsteeg
!!!ARE: Europa, Mitteleuropa, Deutschland
!!!SCT: F0919
!!!TXL: @@DE
!!!YEM: Copyright 1995, estate of Helmut Schaffrath.
**kern	**text
*ICvox	*
*clefG2	*
*M4/4	*
*met(c)	*
*k[b-]	*
*F:	*
!LO:TX:a:t=P:only the highest voice encoded:problem	!
{4a	Jch
=1	=1
4b-/	hab'
4g	ein
4g	Bäch-
8a/L	-lein
8b-J	.
=2	=2
(4b-/M	fun-
4a)	.
4a}	-den,
{4cc/	vom
=3	=3
(8cc/L	Städtchen
8b-J)	.
4a	.
4g	ʒiem-
8gL	-lich
8aJ	.
=4	=4
4f	weit;
4r	.
4r}	.
{4a	da
=5	=5
4b-/	ſitʒ'
4g	ich
4g	man-
8aL	-che
8b-J	.
=6	=6
(4b-/M	Stun-
4a)	.
4a}	-den
{4cc/	in
=7	=7
(8cc/L	ſtil-
8b-J)	.
4a	-ler
4g	Ein-
8gL	-ſam-
8aJ	.
=8	=8
4f	-keit.
4r	.
4r}	.
{4a	Jch
=9	=9
4g	thät
4g	mir
4g	gleich
4g	er-
=10	=10
(>4g	-kie-
4cc/)	.
4cc/}	-ſen
{4b-X/	ein
=11	=11
4a	Plätʒchen
4cc#	.
4dd	küh-
4cc	-les
=12	=12
2bn	Moos;
4r}	.
{4g	da
=13	=13
4cc	ſitʒ'
4cc	ich
4g	und
4a	da
=14	=14
(>4b-X/	flie-
4cc/)	.
4a}	-ßen
{4f	mir
=15	=15
4g	Thränen
4g	.
4e	in
4e	den
=16	=16
4f	Schooß.
4r	.
4r}	.
==	==
!!!AGN: Liebes - Lied
!!!ONB: ESAC (Essen Associative Code) Database: FINK
!!!AMT: simple quadruple
!!!AIN: vox
!!!EED: Helmut Schaffrath
!!!EEV: 1.0
!!Text: Fr. L. Gr. z. Stolberg
!!!RDF**kern: > = above
!!!GTL: Minnelieder
!!!source: Musikalischer Hausschatz der Deutschen. Eine Sammlung von über 1000 Liedern und Gesängen mit Singstimmen und Klavierbegleitung. Leipzig, Litterarisches Verlags-Haus.
!!!page: 681
!!!URL-scan: https://www.digitale-sammlungen.de/en/view/bsb11144622?page=591
!!!ENC: Anna Maria Matuszewska
!!!EEV: 2024/08/07
*-	*-